svgs/fdroidclassic.svg

<svg xmlns="http://www.w3.org/2000/svg" viewBox="0 0 192 192"><path d="M65.658 48.369c-2.738 0-5.406.864-7.621 2.467a12.93 12.93 0 0 0-4.711 6.46 12.878 12.878 0 0 0 0 7.985 12.92 12.92 0 0 0 4.711 6.46 12.998 12.998 0 0 0 15.243 0 12.919 12.919 0 0 0 4.71-6.46c.846-2.594.846-5.39 0-7.985a12.928 12.928 0 0 0-4.71-6.46 13.004 13.004 0 0 0-7.622-2.467Zm60.597 0c-2.737 0-5.406.864-7.621 2.467a12.93 12.93 0 0 0-4.711 6.46 12.878 12.878 0 0 0 0 7.985 12.92 12.92 0 0 0 4.711 6.46 12.997 12.997 0 0 0 15.243 0 12.919 12.919 0 0 0 4.71-6.46c.846-2.594.846-5.39 0-7.985a12.928 12.928 0 0 0-4.71-6.46 13.004 13.004 0 0 0-7.622-2.467Z" fill="none" stroke="#000" stroke-width="12" stroke-linecap="round" stroke-linejoin="round"/><path d="M49.061 32.133h93.878c3.209 0 6.289 1.276 8.558 3.545a12.107 12.107 0 0 1 3.544 8.557v31.739c0 3.208-1.276 6.288-3.544 8.557a12.106 12.106 0 0 1-8.558 3.545H49.061a12.106 12.106 0 0 1-8.558-3.545 12.109 12.109 0 0 1-3.544-8.557V44.235c0-3.208 1.276-6.289 3.544-8.557a12.106 12.106 0 0 1 8.558-3.545" fill="none" stroke="#000" stroke-width="12" stroke-linecap="round" stroke-linejoin="round"/><path d="M41.411 88.033h109.178a13.098 13.098 0 0 1 13.097 13.096v61.275a13.1 13.1 0 0 1-13.097 13.096H41.411a13.1 13.1 0 0 1-13.097-13.096v-61.275a13.1 13.1 0 0 1 13.097-13.096m-4.452-26.744h-4.322a4.332 4.332 0 0 1-3.057-1.262 4.3 4.3 0 0 1-1.266-3.045V16.5m126.727 44.789h4.322a4.332 4.332 0 0 0 3.057-1.262 4.3 4.3 0 0 0 1.266-3.045V16.5m-73.953 1.981h12.534a4.335 4.335 0 0 1 2.547.84 4.3 4.3 0 0 1 1.559 2.175l3.372 10.723h-27.49l3.372-10.723a4.3 4.3 0 0 1 1.559-2.175 4.335 4.335 0 0 1 2.547-.84Z" fill="none" stroke="#000" stroke-width="12" stroke-linecap="round" stroke-linejoin="round"/></svg>

<svg
    xmlns="http://www.w3.org/2000/svg"
    viewBox="0 0 192 192"
    id="vector">
    <path
        id="path"
        d="M 65.658 48.369 C 62.92 48.369 60.252 49.233 58.037 50.836 C 55.822 52.44 54.172 54.702 53.326 57.296 C 52.48 59.891 52.48 62.687 53.326 65.281 C 54.172 67.876 55.822 70.138 58.037 71.741 C 60.252 73.345 62.92 74.209 65.658 74.209 C 68.396 74.209 71.065 73.345 73.28 71.741 C 75.495 70.138 77.144 67.876 77.99 65.281 C 78.836 62.687 78.836 59.891 77.99 57.296 C 77.144 54.702 75.495 52.44 73.28 50.836 C 71.065 49.233 68.396 48.369 65.658 48.369 Z M 126.255 48.369 C 123.518 48.369 120.849 49.233 118.634 50.836 C 116.419 52.44 114.769 54.702 113.923 57.296 C 113.077 59.891 113.077 62.687 113.923 65.281 C 114.769 67.876 116.419 70.138 118.634 71.741 C 120.849 73.345 123.518 74.209 126.255 74.209 C 128.993 74.209 131.662 73.345 133.877 71.741 C 136.092 70.138 137.741 67.876 138.587 65.281 C 139.433 62.687 139.433 59.891 138.587 57.296 C 137.741 54.702 136.092 52.44 133.877 50.836 C 131.662 49.233 128.993 48.369 126.255 48.369 Z"
        fill="none"
        stroke="#000000"
        stroke-width="12"
        stroke-linecap="round"
        stroke-linejoin="round"/>
    <path
        id="path_1"
        d="M 49.061 32.133 L 142.939 32.133 C 146.148 32.133 149.228 33.409 151.497 35.678 C 153.765 37.946 155.041 41.027 155.041 44.235 L 155.041 75.974 C 155.041 79.182 153.765 82.262 151.497 84.531 C 149.228 86.8 146.148 88.076 142.939 88.076 L 49.061 88.076 C 45.852 88.076 42.772 86.8 40.503 84.531 C 38.235 82.262 36.959 79.182 36.959 75.974 L 36.959 44.235 C 36.959 41.027 38.235 37.946 40.503 35.678 C 42.772 33.409 45.852 32.133 49.061 32.133"
        fill="none"
        stroke="#000000"
        stroke-width="12"
        stroke-linecap="round"
        stroke-linejoin="round"/>
    <path
        id="path_2"
        d="M 41.411 88.033 L 150.589 88.033 C 154.061 88.033 157.395 89.413 159.85 91.869 C 162.305 94.324 163.686 97.657 163.686 101.129 L 163.686 162.404 C 163.686 165.876 162.305 169.209 159.85 171.664 C 157.395 174.119 154.061 175.5 150.589 175.5 L 41.411 175.5 C 37.939 175.5 34.605 174.119 32.15 171.664 C 29.695 169.209 28.314 165.876 28.314 162.404 L 28.314 101.129 C 28.314 97.657 29.695 94.324 32.15 91.869 C 34.605 89.413 37.939 88.033 41.411 88.033 M 36.959 61.289 L 32.637 61.289 C 31.491 61.289 30.391 60.835 29.58 60.027 C 28.77 59.22 28.314 58.124 28.314 56.982 L 28.314 16.5 M 155.041 61.289 L 159.363 61.289 C 160.509 61.289 161.609 60.835 162.42 60.027 C 163.23 59.22 163.686 58.124 163.686 56.982 L 163.686 16.5 M 89.733 18.481 L 102.267 18.481 C 103.184 18.485 104.076 18.779 104.814 19.321 C 105.552 19.862 106.098 20.624 106.373 21.496 L 109.745 32.219 L 82.255 32.219 L 85.627 21.496 C 85.902 20.624 86.448 19.862 87.186 19.321 C 87.924 18.779 88.816 18.485 89.733 18.481 Z"
        fill="none"
        stroke="#000000"
        stroke-width="12"
        stroke-linecap="round"
        stroke-linejoin="round"/>
</svg>
